logos/keycdn-icon.svg

<?xml version="1.0" encoding="UTF-8"?>
<svg width="256px" height="247px" viewBox="0 0 256 247" version="1.1" xmlns="http://www.w3.org/2000/svg" xmlns:xlink="http://www.w3.org/1999/xlink" preserveAspectRatio="xMidYMid">
    <g>
        <path d="M24.5751812,198.657069 C26.988471,198.756075 29.4265124,199.090223 31.6974799,199.925593 L31.6974799,199.900841 L32.0440036,200.024599 L62.0059239,170.799042 L63.1073741,172.26558 C64.6605426,174.369473 66.3127179,176.293917 68.057712,178.218361 L68.695068,178.954724 C69.1529743,179.41263 69.5180617,179.870536 69.975968,180.328442 L70.7185187,181.058617 L71.4425056,181.79498 L72.0860495,182.432336 L72.8162244,183.168699 L73.4597683,183.806055 L74.282762,184.542418 L75.0253127,185.185962 C88.9168143,197.009535 106.446866,203.704814 124.68339,204.151944 C139.702825,204.529493 154.527176,200.68781 167.472873,193.063187 L169.762405,195.445537 C172.423211,198.285793 175.170649,201.12605 177.831456,203.966306 C161.899433,214.208409 143.251609,219.413757 124.318303,218.903951 C102.960668,218.393498 82.4107803,210.638741 66.0404493,196.912075 L66.1332682,196.726437 L46.9073932,215.680043 C49.8994663,225.575026 46.2096366,236.273448 37.7538574,242.220127 C29.2980781,248.166807 17.9821625,248.021445 9.68192731,241.859522 C1.38169212,235.6976 -2.03210677,224.907926 1.21315402,215.093066 C4.4584148,205.278206 13.6312993,198.650291 23.9687648,198.650881 L24.5875571,198.650881 L24.5751812,198.657069 L24.5751812,198.657069 Z M207.793376,75.0409426 C217.202379,90.5380497 221.941983,108.420063 221.443933,126.543021 C220.904158,148.668484 212.565129,169.891915 197.898888,186.466861 L197.991707,186.55968 L209.810639,199.114975 C214.575339,198.471431 219.340039,200.117418 222.638202,203.601219 C228.25857,209.556055 228.012472,218.932646 222.087477,224.584464 C216.133425,230.200705 206.761578,229.954659 201.11042,224.033738 C197.826823,220.561526 196.425172,215.715687 197.348163,211.026726 C190.442093,203.642224 183.511582,196.280619 176.556744,188.94203 L175.356287,187.661131 L176.730005,186.55968 C180.313516,183.725442 183.627797,180.566518 186.630681,177.123099 C199.15511,163.061826 206.268393,145.003343 206.698114,126.177933 C207.095199,111.974759 203.676237,97.9249604 196.797438,85.4923436 L207.793376,75.0409426 L207.793376,75.0409426 Z M40.8246655,19.0340569 C45.0324527,18.9721776 48.9927231,20.6367288 51.9257983,23.6378711 C55.207299,27.1136854 56.6064707,31.9612277 55.6818672,36.651072 L78.4101062,60.4745733 L77.0301995,61.5760235 C73.4597683,64.4162798 70.1616056,67.5288048 67.1357116,71.0126051 C44.6462124,96.3311742 40.5368036,133.068 56.8761362,162.729991 L45.966829,173.360842 C36.4382252,157.813293 31.6632718,139.819032 32.2296413,121.592683 C32.6999234,99.5327395 41.2949476,78.2215347 55.7313706,61.6255268 L43.2193915,48.5690105 C38.4685595,49.2229329 33.6936082,47.54836 30.3918283,44.070391 C24.7731078,38.1138766 25.0219718,28.7372334 30.9487413,23.0871461 C33.2765035,20.9026122 36.2391035,19.5155867 39.4076313,19.1268757 C39.8779134,19.0773723 40.3543834,19.0649965 40.8308534,19.027869 L40.8246655,19.0340569 L40.8246655,19.0340569 Z M232.037656,3.76403475e-06 C241.510808,0.00156235918 250.09408,5.5830995 253.937949,14.2413487 C257.781819,22.899598 256.164865,33.0095718 249.812278,40.037036 C243.459692,47.0645003 233.56373,49.6905345 224.562646,46.7373855 L224.562646,46.7683251 L224.19137,46.6383788 L191.661462,77.5161116 L190.560012,76.049574 C188.827394,73.7600427 186.896762,71.4705114 184.879499,69.3666178 L184.508224,68.9025236 L183.50578,67.8938922 L181.674155,66.0622672 L181.030611,65.5115421 L180.393255,64.9670049 L179.570262,64.2306422 L178.926718,63.6799171 L178.097536,62.9497422 C164.267327,51.2996012 146.882089,44.7064801 128.804546,44.2560286 C113.681264,43.8847533 98.9292569,47.6470101 86.1078817,55.3447856 L75.6564807,44.4354784 C91.5883444,34.1930215 110.236279,28.9876428 129.169634,29.4978337 C150.54531,29.9999321 171.1075,37.7920809 187.447487,51.5825288 L187.633125,51.5825288 L209.167095,31.1314452 C206.885923,23.850946 208.207556,15.9193126 212.726201,9.77185328 C217.244846,3.624394 224.420524,-0.00426607639 232.050032,3.76403475e-06 L232.037656,3.76403475e-06 L232.037656,3.76403475e-06 Z" fill="#2E3234"></path>
        <path d="M127.579338,53.5007847 C130.289648,53.5131606 132.99377,53.7235499 135.679328,54.032946 C174.347655,58.8904651 201.741588,94.1678108 196.976888,132.836138 C192.119368,171.510653 156.842023,198.904586 118.173696,194.139885 C79.5053685,189.282366 52.105248,153.998833 56.8699483,115.336693 C61.4861384,79.4653071 91.6213206,53.6245432 127.579338,53.5007847 Z M128.006304,83.7473495 L126.521203,83.784477 C110.865759,85.0406252 99.5418613,96.8781208 99.1396463,112.614008 C99.3871632,123.541878 104.10236,131.258218 113.03772,137.29763 L115.191117,138.467147 L109.745745,164.078958 L146.260675,164.078958 L140.821492,138.460959 C150.845926,133.300232 156.58213,123.826523 156.866774,112.614008 C156.656385,96.3768991 144.094903,84.1495644 128.006304,83.7473495 Z" fill="#047AED"></path>
    </g>
</svg>

<svg width="256" height="247" xmlns="http://www.w3.org/2000/svg" preserveAspectRatio="xMidYMid">
	<path d="M24.575 198.657c2.413.1 4.852.433 7.122 1.269v-.025l.347.124 29.962-29.226 1.101 1.467c1.554 2.103 3.206 4.028 4.95 5.952l.638.737c.458.458.823.916 1.281 1.373l.743.73.724.737.643.637.73.737.644.637.823.736.742.644a79.626 79.626 0 0 0 49.658 18.966 80.338 80.338 0 0 0 42.79-11.089l2.29 2.383c2.66 2.84 5.408 5.68 8.068 8.52a94.267 94.267 0 0 1-53.513 14.938 94.205 94.205 0 0 1-58.278-21.992l.093-.186-19.226 18.954a23.966 23.966 0 1 1-22.938-17.03h.619l-.013.007ZM207.793 75.041a94.248 94.248 0 0 1 13.65 51.502 93.883 93.883 0 0 1-23.544 59.924l.093.093 11.819 12.555c4.764-.644 9.529 1.002 12.827 4.486 5.62 5.955 5.374 15.332-.55 20.983-5.955 5.617-15.326 5.37-20.978-.55a14.777 14.777 0 0 1-3.762-13.007 4578.577 4578.577 0 0 0-20.791-22.085l-1.2-1.28 1.373-1.102a74.255 74.255 0 0 0 9.9-9.437 79.317 79.317 0 0 0 20.068-50.945 79.453 79.453 0 0 0-9.9-40.686l10.995-10.451ZM40.825 19.034c4.207-.062 8.168 1.603 11.1 4.604a14.79 14.79 0 0 1 3.757 13.013L78.41 60.475l-1.38 1.101c-3.57 2.84-6.868 5.953-9.894 9.437-22.49 25.318-26.6 62.055-10.26 91.717l-10.91 10.63a93.512 93.512 0 0 1-13.736-51.767c.47-22.06 9.065-43.371 23.501-59.967L43.22 48.569a14.888 14.888 0 0 1-12.827-4.499c-5.619-5.956-5.37-15.333.557-20.983a15.037 15.037 0 0 1 8.459-3.96c.47-.05.946-.062 1.423-.1l-.006.007ZM232.038 0a23.966 23.966 0 1 1-7.475 46.737v.031l-.372-.13-32.53 30.878-1.101-1.466a76.13 76.13 0 0 0-5.68-6.683l-.372-.464-1.002-1.01-1.832-1.83-.643-.551-.638-.545-.823-.736-.643-.551-.83-.73a79.59 79.59 0 0 0-49.292-18.694c-15.124-.371-29.876 3.391-42.697 11.089l-10.452-10.91a94.26 94.26 0 0 1 53.514-14.937 93.772 93.772 0 0 1 58.277 22.085h.186l21.534-20.452A23.966 23.966 0 0 1 232.05 0h-.012Z" fill="#2E3234"/>
	<path d="M127.58 53.5c2.71.013 5.414.224 8.1.533 38.668 4.857 66.062 40.135 61.297 78.803-4.858 38.675-40.135 66.069-78.803 61.304-38.669-4.858-66.069-40.141-61.304-78.803C61.486 79.465 91.62 53.625 127.58 53.5Zm.426 30.247-1.485.037c-15.655 1.257-26.98 13.094-27.381 28.83.247 10.928 4.962 18.644 13.898 24.684l2.153 1.17-5.445 25.611h36.515l-5.44-25.618c10.025-5.16 15.761-14.634 16.046-25.847-.21-16.237-12.772-28.464-28.86-28.867Z" fill="#047AED"/>
</svg>
